src/collections/integrations/solr-operator/icons/components/solr-backup/icons/white/solr-backup-white.svg

<svg width="68" height="67" viewBox="0 0 68 67" fill="none" xmlns="http://www.w3.org/2000/svg">
<path d="M57.8008 10.6016L24.8008 46.3016L66.3008 27.2016C65.1008 20.9016 62.1008 15.2016 57.8008 10.7016" fill="white"/>
<path d="M32.8 0C28.2 0 23.9 0.9 19.9 2.6L15.5 39.9L37.6 0.4C36 0.1 34.4 0 32.8 0Z" fill="white"/>
<mask id="mask0_25331_7049" style="mask-type:luminance" maskUnits="userSpaceOnUse" x="26" y="29" width="41" height="23">
<path d="M66.8008 29H26.8008V52H66.8008V29Z" fill="white"/>
</mask>
<g mask="url(#mask0_25331_7049)">
<path d="M66.8 29.1992L27.5 51.1992L64.4 46.7992C66.2 42.6992 67.1 38.2992 67.1 33.5992C67.2 32.0992 67 30.6992 66.8 29.1992Z" fill="white"/>
</g>
<path d="M51.8008 61.4008C56.2008 58.4008 59.8008 54.4008 62.4008 49.8008L27.8008 56.7008L51.8008 61.4008Z" fill="white"/>
<path d="M39.8016 0.699219L20.6016 42.3992L56.3016 9.39922C51.9016 5.09922 46.2016 1.99922 39.9016 0.699219" fill="white"/>
<path d="M35.7984 67.0016C39.4984 66.7016 43.0984 65.8016 46.2984 64.4016L26.8984 62.1016L35.7984 67.0016Z" fill="white"/>
<path d="M2.8 19.8008C1.3 23.1008 0.3 26.8008 0 30.6008L5.2 39.9008L2.8 19.8008Z" fill="white"/>
<path d="M17.8 4C13.1 6.5 9 10.1 6 14.6L10.9 39L17.8 4Z" fill="white"/>
</svg>

<svg version="1.1" id="Layer_1" xmlns:dc="http://purl.org/dc/elements/1.1/" xmlns="http://www.w3.org/2000/svg" xmlns:xlink="http://www.w3.org/1999/xlink" x="0px" y="0px" viewBox="0 0 67.2 67" style="enable-background:new 0 0 67.2 67;" xml:space="preserve"> <style type="text/css"> .st0{fill:#FFFFFF;} .st1{clip-path:url(#SVGID_00000041289090948722386400000013809355385346017725_);} </style> <sodipodi:namedview bordercolor="#666666" borderopacity="1" gridtolerance="10" guidetolerance="10" inkscape:current-layer="svg2070" inkscape:cx="174.20232" inkscape:cy="114.24045" inkscape:pageopacity="0" inkscape:pageshadow="2" inkscape:window-height="1014" inkscape:window-maximized="1" inkscape:window-width="1920" inkscape:window-x="0" inkscape:window-y="36" inkscape:zoom="1.6614858" objecttolerance="10" pagecolor="#ffffff" showgrid="false"> </sodipodi:namedview> <path class="st0" d="M57.8,10.6l-33,35.7l41.5-19.1c-1.2-6.3-4.2-12-8.5-16.5"/> <path class="st0" d="M32.8,0c-4.6,0-8.9,0.9-12.9,2.6l-4.4,37.3L37.6,0.4C36,0.1,34.4,0,32.8,0"/> <g> <defs> <rect id="SVGID_1_" x="26.8" y="29" width="40" height="23"/> </defs> <use xlink:href="#SVGID_1_" style="overflow:visible;fill:#FFFFFF;"/> <clipPath id="SVGID_00000011714368665592348780000010249460823407521966_"> <use xlink:href="#SVGID_1_" style="overflow:visible;"/> </clipPath> <g style="clip-path:url(#SVGID_00000011714368665592348780000010249460823407521966_);"> <path class="st0" d="M66.8,29.2l-39.3,22l36.9-4.4c1.8-4.1,2.7-8.5,2.7-13.2C67.2,32.1,67,30.7,66.8,29.2"/> </g> </g> <path class="st0" d="M51.8,61.4c4.4-3,8-7,10.6-11.6l-34.6,6.9L51.8,61.4z"/> <path class="st0" d="M39.8,0.7L20.6,42.4l35.7-33C51.9,5.1,46.2,2,39.9,0.7"/> <path class="st0" d="M35.8,67c3.7-0.3,7.3-1.2,10.5-2.6l-19.4-2.3L35.8,67z"/> <path class="st0" d="M2.8,19.8c-1.5,3.3-2.5,7-2.8,10.8l5.2,9.3L2.8,19.8z"/> <path class="st0" d="M17.8,4C13.1,6.5,9,10.1,6,14.6L10.9,39L17.8,4z"/> </svg>
